Adwaita++/status/16/battery-full-charged.svg

<svg height="16" width="16" xmlns="http://www.w3.org/2000/svg">
  <g fill="#474747">
    <path d="m5.469.04c-.489 0-.794.213-1.03.452-.235.24-.439.554-.439 1.028v.501h-2v13.916l12.002.003v-13.92h-2.002v-.415a1.616 1.616 0 0 0 -.418-1.012c-.236-.278-.62-.583-1.197-.55l.054-.003zm.529 1.995 4.006.002v1.98h2v9.924h-8.008v-9.923h2.002z" opacity=".5"/>
    <path d="m8.957 5.002a1 1 0 0 0 -.664.291l-3 3a1 1 0 0 0 .707 1.707h.984l.17.002-.98 1.434a1 1 0 0 0 1.533 1.271l3-3a1 1 0 0 0 -.707-1.707h-1.13l.962-1.445a1 1 0 0 0 -.875-1.553z"/>
    <path d="m5 9h1v1h-1zm4-4h1v1h-1zm-3 7h1v1h-1zm4-4h1v1h-1z"/>
  </g>
</svg>

<svg xmlns="http://www.w3.org/2000/svg" width="16" height="16">
    <g fill="#474747">
        <path d="M5.469.04c-.489 0-.794.213-1.03.452C4.204.732 4 1.046 4 1.52v.501H2v13.916l12.002.003V2.02H12V1.605a1.616 1.616 0 0 0-.418-1.012c-.236-.278-.62-.583-1.197-.55l.054-.003zm.529 1.995l4.006.002v1.98h2v9.924H3.996V4.018h2.002z" style="line-height:normal;font-variant-ligatures:normal;font-variant-position:normal;font-variant-caps:normal;font-variant-numeric:normal;font-variant-alternates:normal;font-feature-settings:normal;text-indent:0;text-align:start;text-decoration-line:none;text-decoration-style:solid;text-decoration-color:#000;text-transform:none;text-orientation:mixed;white-space:normal;shape-padding:0;isolation:auto;mix-blend-mode:normal;solid-color:#000;solid-opacity:1;marker:none" color="#bebebe" font-weight="400" font-family="sans-serif" overflow="visible" opacity=".5"/>
        <path d="M8.957 5.002a1 1 0 0 0-.664.291l-3 3A1 1 0 0 0 6 10h.984l.17.002-.98 1.434a1 1 0 0 0 1.533 1.271l3-3A1 1 0 0 0 10 8H8.87l.962-1.445a1 1 0 0 0-.875-1.553z" style="line-height:normal;font-variant-ligatures:normal;font-variant-position:normal;font-variant-caps:normal;font-variant-numeric:normal;font-variant-alternates:normal;font-feature-settings:normal;text-indent:0;text-align:start;text-decoration-line:none;text-decoration-style:solid;text-decoration-color:#000;text-transform:none;text-orientation:mixed;white-space:normal;shape-padding:0;isolation:auto;mix-blend-mode:normal;solid-color:#000;solid-opacity:1;marker:none" color="#bebebe" font-weight="400" font-family="sans-serif" overflow="visible"/>
        <path d="M5 9h1v1H5zM9 5h1v1H9zM6 12h1v1H6zM10 8h1v1h-1z"/>
    </g>
</svg>
